assets/img/gruppen/ring-namata.svg

<svg fill="none" height="600" viewBox="0 0 480 600" width="480" xmlns="http://www.w3.org/2000/svg"><path d="m12.0154 12h455.9846v347.381l-.015 1.897c-.962 125.403-102.693 226.722-227.988 226.722-125.895 0-227.997-102.287-227.997-228.519l.008-180.09.0054-123.3528.0018-40.6295z" fill="#b42f2f" stroke="#ffd000" stroke-width="24"/><g fill="#ffd000"><path clip-rule="evenodd" d="m299.659 310.244c14.146-16.716 57.81-86.352 57.81-114.069l-62.646-2.815c0 36.728-34.344 77.15-66.396 91.679-34.486 15.632-59.751 39.326-60.187 79.9-.476 44.271 30.488 83.168 72.26 109.061 31 19.216 57.5 50.5 94 57.5l23-50c-39.5-12-29-10.5-78.5-47-32.485-23.953-54.925-46.609-56-63-.949-14.469 20.399-25.32 31.688-30.553 16.683-7.734 32.887-16.423 44.971-30.703z" fill-rule="evenodd" stroke="#000" stroke-width="6"/><path d="m194 433.5c-29.486 18.5-19.5 30.5-70 60.076l25 49.924c52.5-26.5 67-58 87-71.5-17.5-14-26.5-21-42-38.5z" stroke="#000" stroke-width="6"/><path d="m133.634 182.098c-4.928 55.607 18.3 107.694 47.549 128.962 3.901 2.836 10.459 6.526 18.034 10.788 23.536 13.242 76.781 45.062 35.783 73.152 16.5 18.5 24.5 23 41 37 60.5-53 23.66-116.38-37.675-153.313-4.036-2.43-8.001-4.818-11.825-7.187-29.787-18.455-28.777-53.33-28.232-72.183.065-2.227.123-4.231.123-5.957 0 0-59.83-66.869-64.757-11.262z" stroke="#000" stroke-width="6"/><path d="m455.5 425.069c-227.5 152.686-254.5-3.814-438.5 0l78.5 116.431 126.5 47.255 121.5-21.755 83-74.745z" stroke="#000" stroke-width="5"/><path d="m269.822 69.3296c-12.019 0-23.441 2.0723-33.754 5.8006-13.777-8.2522-30.813-13.1302-49.252-13.1302-45.679 0-82.739 29.9324-83.006 66.938-26.0298 1.229-46.7521 22.474-46.7521 48.503 0 7.756 1.84 15.087 5.1121 21.59-5.1408 6.773-8.17 15.09-8.17 24.08 0 22.749 19.3958 41.19 43.3218 41.19 2.3256 0 4.6082-.174 6.8342-.509 7.779 11 20.989 18.237 35.978 18.237 18.983 0 35.115-11.609 40.97-27.768 6.412 1.289 13.119 1.972 20.023 1.972 12.25 0 23.88-2.153 34.348-6.017 10.467 3.864 22.097 6.017 34.347 6.017 7.963 0 15.663-.909 22.952-2.607 2.331 20.658 20.726 36.746 43.073 36.746 16.313 0 30.519-8.573 37.909-21.238 1.936.251 3.913.381 5.922.381 23.926 0 43.322-18.441 43.322-41.19 0-10.507-4.138-20.096-10.949-27.373 1.81-5.061 2.795-10.508 2.795-16.182 0-12.621-4.873-24.117-12.86-32.752.301-2.172.456-4.39.456-6.644 0-26.818-21.999-48.5586-49.136-48.5586-5.105 0-10.029.7695-14.658 2.1976-14.918-17.9091-40.177-29.6834-68.826-29.6834z"/></g><path clip-rule="evenodd" d="m292.774 253.626c2.331 20.658 20.726 36.746 43.073 36.746 16.313 0 30.519-8.573 37.909-21.238 1.936.251 3.913.381 5.922.381 23.926 0 43.322-18.441 43.322-41.19 0-10.507-4.138-20.096-10.949-27.373 1.81-5.061 2.795-10.508 2.795-16.182 0-12.621-4.873-24.117-12.86-32.752.301-2.172.456-4.39.456-6.644 0-26.818-21.999-48.5586-49.136-48.5586-5.105 0-10.029.7695-14.658 2.1976-14.918-17.9091-40.177-29.6834-68.826-29.6834-12.019 0-23.441 2.0723-33.754 5.8006-13.777-8.2522-30.813-13.1302-49.252-13.1302-45.679 0-82.739 29.9324-83.006 66.938-26.0298 1.229-46.7521 22.474-46.7521 48.503 0 7.756 1.84 15.087 5.1121 21.59-5.1408 6.773-8.17 15.09-8.17 24.08 0 22.749 19.3958 41.19 43.3218 41.19 2.3256 0 4.6082-.174 6.8342-.509 7.779 11 20.989 18.237 35.978 18.237 18.983 0 35.115-11.609 40.97-27.768 6.412 1.289 13.119 1.972 20.023 1.972 12.25 0 23.88-2.153 34.348-6.017 10.467 3.864 22.097 6.017 34.347 6.017 7.963 0 15.663-.909 22.952-2.607zm-40.451-156.4374c-13.366-17.2694-37.243-29.1886-65.507-29.1886-43.764 0-77.007 28.5746-77.007 61.34 0 2.294.163 4.567.481 6.811-1.927.878-3.802 1.86-5.618 2.939-.245-1.373-.439-2.76-.581-4.158-22.907 1.083-41.0331 19.763-41.0331 42.509 0 5.926 1.2305 11.577 3.4556 16.712 2.3384-2.249 4.9473-4.243 7.7764-5.935-.1917 2.067-.2899 4.162-.2899 6.282 0 .376.0031.751.0092 1.125-8.5835 6.496-14.0092 16.476-14.0092 27.486 0 19.154 16.4207 35.19 37.3218 35.19 6.1342 0 11.8812-1.381 16.9422-3.816 2.593.955 5.267 1.728 8.009 2.303-3.539 2.375-7.47 4.258-11.682 5.545 6.778 8.287 17.405 13.696 29.543 13.696 16.305 0 29.884-9.76 35.067-23.145-3.738-.997-7.359-2.202-10.842-3.601 2.038-1.267 3.999-2.659 5.874-4.165 9.375 3.278 19.796 5.115 30.894 5.115 9.21 0 17.954-1.265 26.02-3.569-6.567-3.2-12.544-7.116-17.767-11.615 4.392 1.022 8.915 1.858 13.548 2.494 12.83 7.903 28.981 12.69 46.894 12.69 11.804 0 22.842-2.078 32.669-5.757 1.332 1.658 2.755 3.241 4.262 4.742-2.625 1.06-5.329 2.01-8.104 2.844 1.548 17.854 17.354 32.31 37.198 32.31 16.379 0 30.006-9.848 35.136-23.327 2.568-1.14 5.035-2.461 7.386-3.947-.443 2.163-1.064 4.266-1.848 6.294 1.04.082 2.093.123 3.157.123 20.901 0 37.322-16.037 37.322-35.19 0-7.939-2.821-15.342-7.613-21.29-1.33 2.543-2.881 4.956-4.627 7.212.159-1.728.24-3.478.24-5.247 0-2.02-.106-4.016-.313-5.981 2.667-5.536 4.159-11.725 4.159-18.249 0-9.485-3.153-18.264-8.49-25.354-1.626 5.33-4.155 10.274-7.411 14.658-1.268-1.619-2.622-3.168-4.055-4.641 4.767-6.851 7.552-15.143 7.552-24.059 0-23.438-19.245-42.559-43.136-42.559-13.315 0-25.187 5.94-33.089 15.255-1.652-1.113-3.36-2.191-5.119-3.23 4.703-5.741 10.704-10.4 17.562-13.543-13.744-15.5129-36.367-25.9674-62.838-25.9674-9.751 0-18.981 1.4188-27.436 3.9867 7.162 5.2401 13.194 11.4784 17.762 18.4446-2.58-.2531-5.189-.4447-7.825-.5723z" fill="#000" fill-rule="evenodd"/><path d="m12.0154 12h455.9846v347.381l-.015 1.897c-.962 125.403-102.693 226.722-227.988 226.722-125.895 0-227.997-102.287-227.997-228.519l.008-180.09.0054-123.3528.0018-40.6295z" stroke="#ffd000" stroke-width="24"/><path d="m459 21v338.344l-.014 1.865c-.925 120.482-98.66 217.791-218.989 217.791-120.906 0-218.997-98.239-218.997-219.519l.015-338.481zm-434.9852 3h431.9852v335.333l-.014 1.853c-.912 118.841-97.315 214.814-215.989 214.814-119.243 0-215.997-96.89-215.997-216.519z" stroke="#000"/></svg>

<svg width="480" height="600" viewBox="0 0 480 600" fill="none" xmlns="http://www.w3.org/2000/svg">
<path d="M12.0154 12H468V359.381L467.985 361.278C467.023 486.681 365.292 588 239.997 588C114.102 588 12 485.713 12 359.481L12.008 179.391L12.0134 56.0382L12.0152 15.4087L12.0154 12Z" fill="#B42F2F" stroke="#FFD000" stroke-width="24"/>
<path fill-rule="evenodd" clip-rule="evenodd" d="M299.659 310.244C313.805 293.528 357.469 223.892 357.469 196.175L294.823 193.36C294.823 230.088 260.479 270.51 228.427 285.039C193.941 300.671 168.676 324.365 168.24 364.939C167.764 409.21 198.728 448.107 240.5 474C271.5 493.216 298 524.5 334.5 531.5L357.5 481.5C318 469.5 328.5 471 279 434.5C246.515 410.547 224.075 387.891 223 371.5C222.051 357.031 243.399 346.18 254.688 340.947C271.371 333.213 287.575 324.524 299.659 310.244Z" fill="#FFD000" stroke="black" stroke-width="6"/>
<path d="M194 433.5C164.514 452 174.5 464 124 493.576L149 543.5C201.5 517 216 485.5 236 472C218.5 458 209.5 451 194 433.5Z" fill="#FFD000" stroke="black" stroke-width="6"/>
<path d="M133.634 182.098C128.706 237.705 151.934 289.792 181.183 311.06C185.084 313.896 191.642 317.586 199.217 321.848C222.753 335.09 275.998 366.91 235 395C251.5 413.5 259.5 418 276 432C336.5 379 299.66 315.62 238.325 278.687C234.289 276.257 230.324 273.869 226.5 271.5C196.713 253.045 197.723 218.17 198.268 199.317C198.333 197.09 198.391 195.086 198.391 193.36C198.391 193.36 138.561 126.491 133.634 182.098Z" fill="#FFD000" stroke="black" stroke-width="6"/>
<path d="M455.5 425.069C228 577.755 201 421.255 17 425.069L95.5 541.5L222 588.755L343.5 567L426.5 492.255L455.5 425.069Z" fill="#FFD000" stroke="black" stroke-width="5"/>
<path d="M269.822 69.3296C257.803 69.3296 246.381 71.4019 236.068 75.1302C222.291 66.878 205.255 62 186.816 62C141.137 62 104.077 91.9324 103.81 128.938C77.7802 130.167 57.0579 151.412 57.0579 177.441C57.0579 185.197 58.8979 192.528 62.17 199.031C57.0292 205.804 54 214.121 54 223.111C54 245.86 73.3958 264.301 97.3218 264.301C99.6474 264.301 101.93 264.127 104.156 263.792C111.935 274.792 125.145 282.029 140.134 282.029C159.117 282.029 175.249 270.42 181.104 254.261C187.516 255.55 194.223 256.233 201.127 256.233C213.377 256.233 225.007 254.08 235.475 250.216C245.942 254.08 257.572 256.233 269.822 256.233C277.785 256.233 285.485 255.324 292.774 253.626C295.105 274.284 313.5 290.372 335.847 290.372C352.16 290.372 366.366 281.799 373.756 269.134C375.692 269.385 377.669 269.515 379.678 269.515C403.604 269.515 423 251.074 423 228.325C423 217.818 418.862 208.229 412.051 200.952C413.861 195.891 414.846 190.444 414.846 184.77C414.846 172.149 409.973 160.653 401.986 152.018C402.287 149.846 402.442 147.628 402.442 145.374C402.442 118.556 380.443 96.8154 353.306 96.8154C348.201 96.8154 343.277 97.5849 338.648 99.013C323.73 81.1039 298.471 69.3296 269.822 69.3296Z" fill="#FFD000"/>
<path fill-rule="evenodd" clip-rule="evenodd" d="M292.774 253.626C295.105 274.284 313.5 290.372 335.847 290.372C352.16 290.372 366.366 281.799 373.756 269.134C375.692 269.385 377.669 269.515 379.678 269.515C403.604 269.515 423 251.074 423 228.325C423 217.818 418.862 208.229 412.051 200.952C413.861 195.891 414.846 190.444 414.846 184.77C414.846 172.149 409.973 160.653 401.986 152.018C402.287 149.846 402.442 147.628 402.442 145.374C402.442 118.556 380.443 96.8154 353.306 96.8154C348.201 96.8154 343.277 97.5849 338.648 99.013C323.73 81.1039 298.471 69.3296 269.822 69.3296C257.803 69.3296 246.381 71.4019 236.068 75.1302C222.291 66.878 205.255 62 186.816 62C141.137 62 104.077 91.9324 103.81 128.938C77.7802 130.167 57.0579 151.412 57.0579 177.441C57.0579 185.197 58.8979 192.528 62.17 199.031C57.0292 205.804 54 214.121 54 223.111C54 245.86 73.3958 264.301 97.3218 264.301C99.6474 264.301 101.93 264.127 104.156 263.792C111.935 274.792 125.145 282.029 140.134 282.029C159.117 282.029 175.249 270.42 181.104 254.261C187.516 255.55 194.223 256.233 201.127 256.233C213.377 256.233 225.007 254.08 235.475 250.216C245.942 254.08 257.572 256.233 269.822 256.233C277.785 256.233 285.485 255.324 292.774 253.626ZM252.323 97.1886C238.957 79.9192 215.08 68 186.816 68C143.052 68 109.809 96.5746 109.809 129.34C109.809 131.634 109.972 133.907 110.29 136.151C108.363 137.029 106.488 138.011 104.672 139.09C104.427 137.717 104.233 136.33 104.091 134.932C81.184 136.015 63.0579 154.695 63.0579 177.441C63.0579 183.367 64.2884 189.018 66.5135 194.153C68.8519 191.904 71.4608 189.91 74.2899 188.218C74.0982 190.285 74 192.38 74 194.5C74 194.876 74.0031 195.251 74.0092 195.625C65.4257 202.121 60 212.101 60 223.111C60 242.265 76.4207 258.301 97.3218 258.301C103.456 258.301 109.203 256.92 114.264 254.485C116.857 255.44 119.531 256.213 122.273 256.788C118.734 259.163 114.803 261.046 110.591 262.333C117.369 270.62 127.996 276.029 140.134 276.029C156.439 276.029 170.018 266.269 175.201 252.884C171.463 251.887 167.842 250.682 164.359 249.283C166.397 248.016 168.358 246.624 170.233 245.118C179.608 248.396 190.029 250.233 201.127 250.233C210.337 250.233 219.081 248.968 227.147 246.664C220.58 243.464 214.603 239.548 209.38 235.049C213.772 236.071 218.295 236.907 222.928 237.543C235.758 245.446 251.909 250.233 269.822 250.233C281.626 250.233 292.664 248.155 302.491 244.476C303.823 246.134 305.246 247.717 306.753 249.218C304.128 250.278 301.424 251.228 298.649 252.062C300.197 269.916 316.003 284.372 335.847 284.372C352.226 284.372 365.853 274.524 370.983 261.045C373.551 259.905 376.018 258.584 378.369 257.098C377.926 259.261 377.305 261.364 376.521 263.392C377.561 263.474 378.614 263.515 379.678 263.515C400.579 263.515 417 247.478 417 228.325C417 220.386 414.179 212.983 409.387 207.035C408.057 209.578 406.506 211.991 404.76 214.247C404.919 212.519 405 210.769 405 209C405 206.98 404.894 204.984 404.687 203.019C407.354 197.483 408.846 191.294 408.846 184.77C408.846 175.285 405.693 166.506 400.356 159.416C398.73 164.746 396.201 169.69 392.945 174.074C391.677 172.455 390.323 170.906 388.89 169.433C393.657 162.582 396.442 154.29 396.442 145.374C396.442 121.936 377.197 102.815 353.306 102.815C339.991 102.815 328.119 108.755 320.217 118.07C318.565 116.957 316.857 115.879 315.098 114.84C319.801 109.099 325.802 104.44 332.66 101.297C318.916 85.7841 296.293 75.3296 269.822 75.3296C260.071 75.3296 250.841 76.7484 242.386 79.3163C249.548 84.5564 255.58 90.7947 260.148 97.7609C257.568 97.5078 254.959 97.3162 252.323 97.1886Z" fill="black"/>
<path d="M12.0154 12H468V359.381L467.985 361.278C467.023 486.681 365.292 588 239.997 588C114.102 588 12 485.713 12 359.481L12.008 179.391L12.0134 56.0382L12.0152 15.4087L12.0154 12Z" stroke="#FFD000" stroke-width="24"/>
<path d="M459 21V359.344L458.986 361.209C458.061 481.691 360.326 579 239.997 579C119.091 579 21 480.761 21 359.481L21.015 21H459ZM24.0148 24H456V359.333L455.986 361.186C455.074 480.027 358.671 576 239.997 576C120.754 576 24 479.11 24 359.481L24.0148 24Z" stroke="black"/>
</svg>
